src/Assets/icon/icon_book.svg

<svg fill="none" height="20" viewBox="0 0 22 20" width="22" xmlns="http://www.w3.org/2000/svg"><path d="m11 7.07641v10.11129m0-10.11129c0-1.66554 0-2.49796.3226-3.13412.2837-.55957.7362-1.01468 1.2931-1.29979.6331-.32414 1.462-.32414 3.1196-.32414h2.565c.5526 0 .8291 0 1.0401.10804.1856.09505.3362.24659.4307.43311.1075.21205.1079.48984.1079 1.04503v8.72346c0 .5551-.0004.8324-.1079 1.0444-.0945.1866-.2448.3386-.4304.4336-.2109.108-.4867.108-1.0382.108h-2.7946c-.9266 0-1.3907 0-1.8112.1284-.3724.1136-.718.2995-1.0186.5477-.3395.2805-.5968.6678-1.1108 1.4425l-.5673.8551m0-10.11129c0-1.66554-.0002-2.49796-.3227-3.13412-.2838-.55957-.73656-1.01468-1.29348-1.29979-.63313-.32414-1.46211-.32414-3.11968-.32414h-2.56506c-.55252 0-.82851 0-1.03955.10804-.18563.09505-.33644.24659-.43103.43311-.10753.21205-.10753.48984-.10753 1.04503v8.72346c0 .5551 0 .8324.10753 1.0444.09459.1866.2454.3386.43103.4336.21083.108.48649.108 1.03793.108h2.79469c.92659 0 1.38975 0 1.8103.1284.37229.1136.71962.2995 1.02021.5477.33819.2793.59381.6647 1.10364 1.4331l.5737.8645" stroke="#2977ec" stroke-linecap="round" stroke-linejoin="round" stroke-width="4"/></svg>

<svg width="22" height="20" viewBox="0 0 22 20" fill="none" xmlns="http://www.w3.org/2000/svg">
<path d="M11 7.07641V17.1877M11 7.07641C11 5.41087 11 4.57845 11.3226 3.94229C11.6063 3.38272 12.0588 2.92761 12.6157 2.6425C13.2488 2.31836 14.0777 2.31836 15.7353 2.31836H18.3003C18.8529 2.31836 19.1294 2.31836 19.3404 2.4264C19.526 2.52145 19.6766 2.67299 19.7711 2.85951C19.8786 3.07156 19.879 3.34935 19.879 3.90454V12.628C19.879 13.1831 19.8786 13.4604 19.7711 13.6724C19.6766 13.859 19.5263 14.011 19.3407 14.106C19.1298 14.214 18.854 14.214 18.3025 14.214H15.5079C14.5813 14.214 14.1172 14.214 13.6967 14.3424C13.3243 14.456 12.9787 14.6419 12.6781 14.8901C12.3386 15.1706 12.0813 15.5579 11.5673 16.3326L11 17.1877M11 7.07641C11 5.41087 10.9998 4.57845 10.6773 3.94229C10.3935 3.38272 9.94074 2.92761 9.38382 2.6425C8.75069 2.31836 7.92171 2.31836 6.26414 2.31836H3.69908C3.14656 2.31836 2.87057 2.31836 2.65953 2.4264C2.4739 2.52145 2.32309 2.67299 2.2285 2.85951C2.12097 3.07156 2.12097 3.34935 2.12097 3.90454V12.628C2.12097 13.1831 2.12097 13.4604 2.2285 13.6724C2.32309 13.859 2.4739 14.011 2.65953 14.106C2.87036 14.214 3.14602 14.214 3.69746 14.214H6.49215C7.41874 14.214 7.8819 14.214 8.30245 14.3424C8.67474 14.456 9.02207 14.6419 9.32266 14.8901C9.66085 15.1694 9.91647 15.5548 10.4263 16.3232L11 17.1877" stroke="#2977EC" stroke-width="4" stroke-linecap="round" stroke-linejoin="round"/>
</svg>
